X:1
T:Chi brama in amore
T:Chi brama in amore
T:Barbara Strozzi
T:Source : Ariette a voce sola---Venetia---F.Magni---1657. Editor : André Vierendeels (10/05/16).
T:Notes :  Original clefs C1, C3 (from m4: F4, from m12: C3, from m14: F4, from m 15 to 18 : C3 from m 19 to th end: F4) Editorial accidentals above the staff m13 in S: "B" notated as "A" in original print 
T:©
T:©
T:©
T:©
C:Barbara Strozzi
Z:©
%%score 1 2
L:1/8
Q:1/4=72
M:6/8
K:D
V:1 treble nm="Soprano" snm="S"
V:2 bass nm="BC" snm="BC"
V:1
 z2 A cBA | eee ^GAB | EEB cTB>A | BTA>^G AG>F | ^GEB c/B/ A/G/ F/E/ | G- F2 E2 e | fe>d ed>c | %7
w: Chi bra- ma'in a-|mo- re far pa- gh'i de-|si- ri nel cen- * *|* * * * tro del|co- re non chiu _ da _ mar- *|ti- * ri nel|cen- * * * * *|
w: S'a- vie- ne ch'un|dar- do il co- re t'im-|pia- ghe, non co- * *|* * * * pra le|pia- ghe si- len- * tio _ co- *|dar- * do, non|co- * * * * *|
 dc>B cAe | f/e/ d/c/ B/A/ c B2 | A2 e f/e/ d/c/ B/A/ | c B2 A3 :: z2 B ^GAB | EEe cde | AAc dde | %14
w: * tro del co- re non|chiu _ dai _ mar- * ti- *|ri, non chiu _ dai _ mar- *|ti- * ri,|con no- te so-|no- re, con no- te so-|no- re, con vo- ce che|
w: * pra le pia- ghe si-|len- * tio- * co- * dar- *|do, si- len- * tio _ co- *|dar- * do,|dis- co- pra non|tar- do, sis- co- pra non|tar- do, le fre- sche fe-|
 ffe f2 f | z4 z f | edc dBe | cAe ffc | ddA BBF | GGC DEF | G/F/ E2 D2 f | f2 g ef>e | %22
w: stri- da, che stri- da,|all'|em- pi'ho- mi- ci- da sue|pe- ne, sue pe- ne, sue|pe- ne, sue pe- ne, sue|pe- ne, sue pe- ne di-|stin- * * gua pi-|e- * * * *|
w: ri- te, fe- ri- te,|chi|bra- ma gua- ri- te le|pe- ne, le pe- ne, le|pe- ne, le pe- ne, le|pe- ne, le pe- ne del|co- * re, per a-|man- * * * *|
 ^d>cB B<cB/c/ | d>cB =c/B/A/G/A | B2 B B2 c | AB>A ^G>FE- | E<FE/F/ G>FE | =F/E/D/C/D E3 | %28
w: |* * ta non _ _ _ man-|ca pi- e- *||* * * * * * ta|non _ _ _ man- ca,|
w: |* * * te _ _ _ ch'è|mu- to, per a-|man- * * * * *||ta _ _ _ ch'è mu-|
"^PRESTO" Bc>d e<AB/c/ | d<^GA/B/ c<FG/A/ |"^#" B<EF/G/ ABc | d/c/ B2 A3 :| %32
w: ad' a- * * * * *||* * * * ma- tor ch'hà|lin- * * gua.|
w: to'e sor- do'a- mo- * * *||* * * * r'e sor- do'a-|mo- * * re|
V:2
 z3 z2 A, | CB,A, EEE | ^G,A,B, A,3 | ^G,F,>E, F,3 | E,3 A,,B,,C, | A,, B,,2 E,3 | D,3 C,B,,>A,, | %7
 B,,3 A,,2 C, | D,E,F, D, E,2 | F,2 C, D,E,F, | D, E,2 A,,3 :: z3 z2 E | CDE A,2 A, | %13
 F,G,A, D,2 A, | D,2 A, D2 F | EDC DB,D | CB,A, B, ^G,2 |"^ADAGIO" A,2 C D A,2 | B, F,2 G, D,2 | %19
 E, A,,2 B,,2 G,, | A,,3 D,3 | D3 =C3 | B,3 E,3 | D,3 =C,3 | B,,3 G,3 | =F,3 E,3 | A,3 G,3 | %27
 F,3 E, E,,2 | E, D,2 C,3 | B,,3 A,,3 | ^G,,3 F,,E,,D,, | E,,3 A,,3 :| %32

